!!!!SEGMENT: pl-cz--iii-366--002_kreith--partita-dis-menuetto.krn
!!!cenid: 18xx:2479
!!!COM: Kreith
!!!COM-rism: pe30099691
!!!CDT: ~1746-1803/12/23
!!!CNT: Austrian
!!!OTL: Partita Dis - Menuetto
!!!PDT:
!!!AGN: Secular; Partita
!!!SMS-siglum: PL-CZ
!!!SMS-shelfmark: III-366
!!!NIFC-rismID: 300000644
!!!URL-scan: http://repozytorium.nifc.pl/skany/pl-cz-nut--iii-366
!!!ONB-nifc: UWAGA: części Partity: 1. Allegro, 2. Menuetto, 3. Andante, 4. Presto
!!!SMS-variant:
!!!SMS-altvar:
**kern	**kern	**kern	**kern	**kern
*part5	*part4	*part3	*part2	*part1
*staff5	*staff4	*staff3	*staff2	*staff1
*group2	*group2	*group1	*group1	*group1
*I"Corno Secundo in Dis.	*I"Corno Imo	*I"Fagotto	*I"Clarinetto Secudo	*I"Clarinetto Primo
*I'cor 2	*I'cor 1	*I'fag	*I'cl 2	*I'cl 1
*>[A,A,B,B,C,C,D,D,A,A,B,B]	*>[A,A,B,B,C,C,D,D,A,A,B,B]	*>[A,A,B,B,C,C,D,D,A,A,B,B]	*>[A,A,B,B,C,C,D,D,A,A,B,B]	*>[A,A,B,B,C,C,D,D,A,A,B,B]
*>A	*>A	*>A	*>A	*>A
*clefG2	*clefG2	*clefF4	*clefG2	*clefG2
*ITrd5c9	*ITrd5c9	*	*ITrd1c2	*ITrd1c2
*k[b-e-a-]	*k[b-e-a-]	*k[]	*k[b-e-a-]	*k[b-e-a-]
*M3/4	*M3/4	*M3/4	*M3/4	*M3/4
*all\right	*all\right	*all\right	*all\right	*all\right
!	!LO:TX:t=P:problem:brak partii w źródle [zgodnie z RISM "cor 1 missing"	!LO:TX:t=P:problem:brak znaków przykluczowych	!	!
4r	4ryy	4r	8e-/L	8ee-\L
.	.	.	8d/J	8dd\J
=1	=1	=1	=1	=1
!LO:TX:a:t=1	!	!LO:SIC:v:s=4E-\	!	!
2.r	2.ryy	4E\	4e-/	4ee-\
.	.	4D\	4f/	4ff\
!	!	!LO:SIC:v:s=4E-\	!	!
.	.	4E\	4g/	4gg\
=2	=2	=2	=2	=2
2B-/	2.ryy	4F\	4a-/	4aa-\
.	.	4D\	4f/	4ff\
!	!	!LO:SIC:v:s=4E-\	!	!
4e-\	.	4E\	4g/	4gg\
=3	=3	=3	=3	=3
2B-/	2.ryy	4F\	4a-/	4aa-\
.	.	4D\	4f/	4ff\
!	!	!LO:SIC:v:s=4E-\	!	!
4e-\	.	4E\	8g/L	8gg\L
.	.	.	8e-/J	8ee-\J
=4	=4	=4	=4	=4
!	!	!LO:SIC:v:s=4B-\	!	!
4e-\	2.ryy	4B\	4e-/	4ee-\
!	!	!LO:SIC:v:s=4BB-/	!	!
4B-/	.	4BB/	4d/	4dd\
!	!	!LO:SIC:v:s=8e-\L	!	!
4r	.	8e\L	8cc\L	8ee-\L
.	.	8d\J	8b-\J	8dd\J
!	!	!LO:LB:g=original	!	!
=5	=5	=5	=5	=5
4F/	2.ryy	4c\	4a-\	4cc\
4F/	.	4c\	4a-\	4cc\
4F/	.	4c\	4a-\	4cc\
=6	=6	=6	=6	=6
!	!	!LO:SIC:v:s=4B-\	!	!
2E-/	2.ryy	4B\	4g/	4b-\
.	.	4r	4r	4r
4r	.	4r	4r	8aa-\L
.	.	.	.	8gg\J
!	!	!	!	!LO:LB:g=original
=7	=7	=7	=7	=7
*	*	*tremolo	*	*
!	!	!LO:SIC:v:s=8BB-/L	!	!
!	!	!LO:TX:t=P:problem:mixed beam	!	!
4B-/	2.ryy	8BB/L	4f/	4dd\
!	!	!LO:SIC:v:s=8B-\	!	!
.	.	8B\	.	.
!	!	!LO:SIC:v:s=8BB-/	!	!
4B-/	.	8BB/	4f/	8dd\L
!	!	!LO:SIC:v:s=8B-\	!	!
.	.	8B\	.	8cc\J
!	!	!LO:SIC:v:s=8BB-/	!	!
4B-/	.	8BB/	4f/	4dd\
!	!	!LO:SIC:v:s=8B-\J	!	!
.	.	8B\J	.	.
!LO:LB:g=original	!	!	!	!
*	*	*Xtremolo	*	*
=8	=8	=8	=8	=8
*	*	*	*	*2\right
!	!	!LO:SIC:v:s=4E-\	!	!
2G/	2ryy	4E\	2g/	2ee-\
!	!	!LO:SIC:v:s=4EE-/	!	!
.	.	4EE/	.	.
=:|!|:	=:|!|:	=:|!|:	=:|!|:	=:|!|:
*>B	*>B	*>B	*>B	*>B
!LO:TX:t=P:problem:pauza przed kreską taktową	!	!	!	!
4r	4ryy	4r	8e-/L	8g\L
.	.	.	8f/J	8a-\J
!	!	!	!LO:LB:g=original	!
=9	=9	=9	=9	=9
!	!	!LO:SIC:v:s=8E-\L	!	!
2.E-/	2.ryy	8E\L	8g/L	8b-\L
!	!	!LO:SIC:v:s=8B-\	!	!
.	.	8B\	8a-/	8cc\
.	.	8G\	8g/	8b-\
!	!	!LO:SIC:v:s=8B-\	!	!
.	.	8B\	8f/J	8a-\J
!	!	!LO:SIC:v:s=8E-\	!	!
.	.	8E\	4e-/	4g\
!	!	!LO:SIC:v:s=8B-\J	!	!
.	.	8B\J	.	.
=10	=10	=10	=10	=10
*	*	*	*2\right	*
!	!	!LO:SIC:v:s=8E-\L	!	!
2.E-/	2.ryy	8E\L	2cc\	2ee-\
!	!	!LO:SIC:v:s=8B-\	!	!
.	.	8B\	.	.
.	.	8G\	.	.
!	!	!LO:SIC:v:s=8B-\	!	!
.	.	8B\	.	.
!	!	!LO:SIC:v:s=8E-\	!	!
.	.	8E\	4b-\	4cc\
!	!	!LO:SIC:v:s=8B-\J	!	!
.	.	8B\J	.	.
!	!	!LO:LB:g=original	!	!
=11	=11	=11	=11	=11
!	!	!LO:SIC:v:s=8E-\L	!	!
2.E-/	2.ryy	8E\L	8g/L	8b-\L
!	!	!LO:SIC:v:s=8B-\	!	!
.	.	8B\	8a-/	8cc\
.	.	8G\	8g/	8b-\
!	!	!LO:SIC:v:s=8B-\	!	!
.	.	8B\	8f/J	8a-\J
!	!	!LO:SIC:v:s=8E-\	!	!
.	.	8E\	4e-/	4g/
!	!	!LO:SIC:v:s=8B-\J	!	!
.	.	8B\J	.	.
=12	=12	=12	=12	=12
!	!	!LO:SIC:v:s=4BB-/	!	!
2.E-/	2.ryy	4BB/	4.d/	4.f/
!	!	!LO:SIC:v:s=4B-\	!	!
.	.	4B\	.	.
.	.	.	8d/L	8f/L
.	.	4r	8e-/	8g/
.	.	.	8f/J	8a-/J
=13	=13	=13	=13	=13
!	!	!LO:SIC:v:s=8E-\L	!	!
2.E-/	2.ryy	8E\L	8g/L	8b-\L
!	!	!LO:SIC:v:s=8B-\	!	!
.	.	8B\	8a-/	8cc\
.	.	8G\	8g/	8b-\
!	!	!LO:SIC:v:s=8B-\	!	!
.	.	8B\	8f/J	8a-\J
!	!	!LO:SIC:v:s=8E-\	!	!
.	.	8E\	4e-/	4g/
!	!	!LO:SIC:v:s=8B-\J	!	!
.	.	8B\J	.	.
=14	=14	=14	=14	=14
!	!	!LO:SIC:v:s=8E-\L	!	!
2.E-/	2.ryy	8E\L	2cc\	2ee-\
!	!	!LO:SIC:v:s=8B-\	!	!
.	.	8B\	.	.
.	.	8G\	.	.
!	!	!LO:SIC:v:s=8B-\	!	!
.	.	8B\	.	.
!	!	!LO:SIC:v:s=8E-\	!	!
.	.	8E\	4a-\	4cc\
!	!	!LO:SIC:v:s=8B-\J	!	!
.	.	8B\J	.	.
!	!	!	!	!LO:LB:g=original
=15	=15	=15	=15	=15
!	!	!LO:SIC:v:s=8E-\L	!	!
2.E-/	2.ryy	8E\L	8g/L	8b-\L
!	!	!LO:SIC:v:s=8B-\	!	!
.	.	8B\	8e-/	8g\
.	.	8G\	8a-/	8cc\
!	!	!LO:SIC:v:s=8B-\	!	!
.	.	8B\	8g/	8b-\
!	!	!LO:SIC:v:s=8E-\	!	!
.	.	8E\	8f/	8a-\
!	!	!LO:SIC:v:s=8B-\J	!	!
.	.	8B\J	8e-/J	8g\J
=16	=16	=16	=16	=16
!	!	!LO:SIC:v:s=4BB-/	!	!
4B-/	2.ryy	4BB/	4e-/	4g/
!	!	!LO:SIC:v:s=4B-\	!	!
4B-/	.	4B\	4d/	4f/
4B-/	.	4r	8e-/L	8ee-\L
.	.	.	8d/J	8dd\J
!LO:LB:g=original	!	!LO:LB:g=original	!	!
=17	=17	=17	=17	=17
!LO:TX:a:t=1	!	!LO:SIC:v:s=4E-\	!	!
2.r	2.ryy	4E\	4e-/	4ee-\
.	.	4D\	4f/	4ff\
!	!	!LO:SIC:v:s=4E-\	!	!
.	.	4E\	4g/	4gg\
!	!	!	!LO:LB:g=original	!
=18	=18	=18	=18	=18
2B-/	2.ryy	4F\	4a-/	4aa-\
.	.	4D\	4f/	4ff\
!	!	!LO:SIC:v:s=4E-\	!	!
4e-\	.	4E\	4g/	4gg\
=19	=19	=19	=19	=19
2B-/	2.ryy	4F\	4a-/	4aa-\
.	.	4D\	4f/	4ff\
!	!	!LO:SIC:v:s=4E-\	!	!
4e-\	.	4E\	8g/L	8gg\L
.	.	.	8e-/J	8ee-\J
=20	=20	=20	=20	=20
!	!	!LO:SIC:v:s=4B-\	!	!
4e-\	2.ryy	4B\	4e-/	4ee-\
!	!	!LO:SIC:v:s=4BB-/	!	!
4B-/	.	4BB/	4d/	4dd\
!	!	!LO:SIC:v:s=8e-\L	!	!
4r	.	8e\L	8cc\L	8ee-\L
.	.	8d\J	8b-\J	8dd\J
=21	=21	=21	=21	=21
4F/	2.ryy	4c\	4a-\	4cc\
4F/	.	4c\	4a-\	4cc\
4F/	.	4c\	4a-\	4cc\
=22	=22	=22	=22	=22
!	!	!LO:SIC:v:s=4B-\	!	!
2E-/	2.ryy	4B\	4g/	4b-\
.	.	4r	4r	4r
4r	.	4r	8a-/L	8aa-\L
.	.	.	8g/J	8gg\J
=23	=23	=23	=23	=23
*	*	*tremolo	*	*
!	!	!LO:SIC:v:s=8BB-/L	!	!
!LO:TX:t=P:problem:brak taktu nr 23	!	!LO:TX:t=P:problem:mixed beam	!	!
2.ryy	2.ryy	8BB/L	4f/	4dd\
!	!	!LO:SIC:v:s=8B-\	!	!
.	.	8B\	.	.
!	!	!LO:SIC:v:s=8BB-/	!	!
.	.	8BB/	4f/	8dd\L
!	!	!LO:SIC:v:s=8B-\	!	!
.	.	8B\	.	8cc\J
!	!	!LO:SIC:v:s=8BB-/	!	!
.	.	8BB/	4f/	4dd\
!	!	!LO:SIC:v:s=8B-\J	!	!
.	.	8B\J	.	.
!	!	!	!	!LO:LB:g=original
*	*	*Xtremolo	*	*
=24	=24	=24	=24	=24
!	!	!LO:SIC:v:s=4E-\	!	!
2G/	2.ryy	4E\	2g/	2ee-\
!	!	!LO:SIC:v:s=4EE-/	!	!
.	.	4EE/	.	.
4r	.	4ryy	4ryy	4r
!	!	!LO:LB:g=original	!LO:LB:g=original	!
=25:|!	=25:|!	=25:|!	=25:|!	=25:|!
*>C	*>C	*>C	*>C	*>C
*k[b-e-a-]	*k[b-e-a-]	*k[b-e-a-]	*k[b-e-a-]	*k[b-e-a-]
*M3/4	*M3/4	*M3/4	*M3/4	*M3/4
!LO:TX:a:t=1	!	!LO:TX:a:i:t=Trio	!	!
!LO:TX:a:i:t=Trio	!	!LO:TX:a:t=1	!LO:TX:a:t=Trio	!LO:TX:a:i:t=Trio
2.r	2.ryy	2.r	4g/	4b-\
.	.	.	8g/L	8b-\L
.	.	.	8a-/	8cc\
.	.	.	8g/	8b-\
.	.	.	8f/J	8a-\J
=26	=26	=26	=26	=26
*Xtuplet	*	*Xtuplet	*	*
12G/L	2.ryy	12e-\L	4e-/	4g/
12G/	.	12e-\	.	.
12G/J	.	12e-\J	.	.
12G/L	.	12e-\L	4r	4r
12G/	.	12e-\	.	.
12G/J	.	12e-\J	.	.
4G/	.	4e-\	4r	4r
=27	=27	=27	=27	=27
!LO:TX:a:t=1	!	!LO:TX:a:t=1	!	!
2.r	2.ryy	2.r	4cc\	4ee-\
.	.	.	4b-\	4dd\
.	.	.	4a-\	4cc\
=28	=28	=28	=28	=28
12G/L	2.ryy	12e-\L	4g/	4b-\
12G/	.	12e-\	.	.
12G/J	.	12e-\J	.	.
12G/L	.	12e-\L	4r	4r
12G/	.	12e-\	.	.
12G/J	.	12e-\J	.	.
4G/	.	4e-\	4r	4r
=29	=29	=29	=29	=29
!LO:TX:a:t=1	!	!LO:TX:a:t=1	!	!
2.r	2.ryy	2.r	4g/	4b-\
.	.	.	8g/L	8b-\L
.	.	.	8a-/	8cc\
.	.	.	8g/	8b-\
.	.	.	8f/J	8a-\J
!	!	!LO:LB:g=original	!	!
=30	=30	=30	=30	=30
*tremolo	*	*	*	*
!LO:TX:b:t=...	!	!	!	!
12G'/L	2.ryy	12e-\L	4e-/	4g/
12G'/	.	12e-\	.	.
12G'/J	.	12e-\J	.	.
!LO:TX:b:t=...	!	!	!	!
12G'/L	.	12e-\L	4r	4r
12G'/	.	12e-\	.	.
12G'/J	.	12e-\J	.	.
*Xtremolo	*	*	*	*
4G/	.	4e-\	4r	4r
!LO:LB:g=original	!	!	!	!LO:LB:g=original
=31	=31	=31	=31	=31
!LO:TX:a:t=1	!	!	!	!
2.r	2.ryy	2.r	4d/	4f/
.	.	.	4e-/	4g/
.	.	.	4f/	4a-/
!	!	!	!LO:LB:g=original	!
=32	=32	=32	=32	=32
12G/L	2.ryy	12e-\L	2e-/	2g/
12G/	.	12e-\	.	.
12G/J	.	12e-\J	.	.
12G/L	.	12e-\L	.	.
12G/	.	12e-\	.	.
12G/J	.	12e-\J	.	.
4G/	.	4e-\	4r	4r
=33:|!|:	=33:|!|:	=33:|!|:	=33:|!|:	=33:|!|:
*>D	*>D	*>D	*>D	*>D
!LO:TX:a:t=1	!	!	!	!
2.r	2.ryy	2.r	4e-/	4g/
.	.	.	4e-/	4g/
.	.	.	4f/	4a-/
=34	=34	=34	=34	=34
12BB-/L	2.ryy	12B-\L	4d/	4f/
12BB-/	.	12B-\	.	.
12BB-/J	.	12B-\J	.	.
12BB-/L	.	12B-\L	4r	4r
12BB-/	.	12B-\	.	.
12BB-/J	.	12B-\J	.	.
4BB-/	.	4B-\	4r	4r
=35	=35	=35	=35	=35
!LO:TX:a:t=1	!	!LO:TX:a:t=1	!	!
2.r	2.ryy	2.r	8g/L	8b-\L
.	.	.	8e-/	8g\
.	.	.	8a-/	8cc\
.	.	.	8g/	8b-\
.	.	.	8f/	8a-\
.	.	.	8e-/J	8g\J
!	!	!LO:LB:g=original	!	!
=36	=36	=36	=36	=36
12BB-/L	2.ryy	12B-\L	4d/	4f/
12BB-/	.	12B-\	.	.
12BB-/J	.	12B-\J	.	.
12BB-/L	.	12B-\L	4r	4r
12BB-/	.	12B-\	.	.
12BB-/J	.	12B-\J	.	.
4BB-/	.	4B-\	4r	4r
=37	=37	=37	=37	=37
!LO:TX:a:t=2	!	!LO:TX:a:t=2	!	!
1.r	2.ryy	1.r	8g/L	8b-\L
.	.	.	8a-/	8cc\
.	.	.	8g/	8b-\
.	.	.	8f/J	8a-\J
.	.	.	4e-/	4g\
=38	=38	=38	=38	=38
.	2.ryy	.	8cc\L	8ee-\L
.	.	.	8dd\	8ff\
.	.	.	8cc\	8ee-\
.	.	.	8b-\J	8dd\J
.	.	.	4a-\	4cc\
=39	=39	=39	=39	=39
4r	2.ryy	4r	4g/	4b-\
4B-/	.	4B-\	4r	4r
4r	.	4r	4f/	4dd\
=40	=40	=40	=40	=40
4r	2.ryy	4r	2g/	2ee-\
4e-\	.	4E-\	.	.
!LO:TX:b:i:t=Menuetto Da Capo	!	!LO:TX:b:i:t=Menuetto Da Capo	!LO:TX:b:i:t=M&colon; DC	!LO:TX:b:i:t=M&colon; DC
4r	.	4r	4ryy	4r
=:|!	=:|!	=:|!	=:|!	=:|!
*-	*-	*-	*-	*-
!!!system-decoration: [(g1)][(g2)]
!!!ENC: Andrzej Kubiczek
!!!END: 2021-06-27
!!!ENC: Tomasz Grochalski
!!!END: 2021-06-18
